X:1
T:Qual si puo haver
T:Giammateo Asola
T:Source : Madrigali a due voci---Venetia---G.Vincenti---1587. Editor : André Vierendeels (17/04/17).
T:Notes : Original clefs : C1, C1 (fuga all'unisono) Original note valued have been halved Editorial accidentals above the staff
T:Qual si puo haver
T:©
T:©
C:Giammateo Asola
Z:©
%%score [ 1 2 ]
L:1/8
Q:1/4=120
M:2/2
K:C
V:1 treble nm="Soprano 1" snm="S 1"
V:2 treble nm="Soprano 2" snm="S 2"
V:1
 d4 c2 A2 | _B2 G2 AGFE | D2 d2 c2 A2 | B2 G2 AGFE | D2 d2 c2 c2 | d2 _B2 A4 | D4 z2 A2- | %7
w: Qual si puo'ha-|ver in ter- * * *|ra, qual si puo'ha-|ver in ter- * * *|ra, rie- ca mer-|ce'o the- so-|ro, si|
 AA B2 c3 A | c2 d2 e4- | e2 d2 c4 | B4 z2 A2 | G2 E2 F2 F2 | E4 D2 d2 | d2 c2 d2 d2 | e4 d2 B2 | %15
w: _ mi- le'a quel ch'el|sant' ar- dor|_ dis- ser-|ra, non|è di gem- m'o|d'o- ro, ma|di vit' im- mor-|ta- le, di|
 c2 A2 B2 G2 | AGFE D2 d2- | dc/B/ c2 d4 | z2 A2 G2 D2 | F2 F2 E2 A2- | ABcA B2 c2 | A4 z2 E2 | %22
w: pa- ce di ben|ta- * * * * *|* * * * le,|ch'el vec- chi'em-|pio nol fu- *||ra, ma|
 FD A3 G/F/ G2 | A2 z c B2 B2 | c2 B A2 G/F/ G2 | A2 z D FF E2 | D2 d3 c/B/ c2 | dA^FG DF E2 | %28
w: ogn' hor si _ _ go-|de e'n in- fi-|ni- to du- * * *|ra, e'n in- fi- ni-|to du- * * *|ra, e'n in- fi- ni- to du-|
 D8 |] %29
w: ra.|
V:2
 z8 | d4 c2 A2 | _B2 G2 AGFE | D2 d2 c2 A2 | B2 G2 AGFE | D2 d2 c2 c2 | d2 _B2 A4 | D4 z2 A2- | %8
w: |Qual so puo'ha-|ver in ter- * * *|ra, qual si puo'ha-|ver in ter- * * *|ra, rie- ca mer-|ce'o the- so-|ro, si|
 AA B2 c3 A | c2 d2 e4- | e2 d2 c4 | B4 z2 A2 | G2 E2 F2 F2 | E4 D2 d2 | d2 c2 d2 d2 | e4 d2 B2 | %16
w: _ mi- le'a quel ch'el|sant' ar- dor|_ dis- ser-|ra, non|e di gem- m'o|d'o- ro, ma|di vit' im- mor-|ta- le, di|
 c2 A2 B2 G2 | AGFE D2 d2- | dc/B/ c2 d4 | z2 A2 G2 D2 | F2 F2 E2 A2 | ABcA B2 c2 | A4 z2 E2 | %23
w: pa- ce di ben|ta- * * * * *|* * * * le,|ch'el vec- chi'em-|pio nol fu- *||ra, ma|
 FD A3 G/F/ G2 |"^#" A2 z c B2 B2 |"^-natural" c2 B A2 G/F/ G2 | A2 z D FF E2 | D2 d3 c/B/ c2 | %28
w: ogn' hor si _ _ go-|de e'n in- fi-|ni- to du- * * *|ra, e'n in- fi- fi-|to du- * * *|
"^#" d8 |] %29
w: ra.|

